X: 1
T: Hanley's House Of Happiness
M: 3/4
L: 1/8
R: waltz
K: Gmaj
ABc|:d2 G3 B|d3 c cB|A2 B2 d2|A3 B Bc|B2 G2 E2|e2 d3 B|A2 G2 E2|D3 A Bc|
d2 G3 B|d3 c cB|A2 B2 d2|A3 B Bc|B2 G2 E2|e2 f2 g2|(3ABA G2 E2|D3 B, B,C|
D2 B2 G2|E2 B2 G2|(3EFE D2 B,D|D3 B, B,C|D2 G3 B|c2 e3 d|d2 c2 B2| A3 B, B,C|
D2 B2 G2|E2 B2 G2|E2 D2 B,D|D3 A AB|c e4 d|d2 c2 B2 | A2 G2 E2|1D3 A Bc:|2&quot;fine&quot; D6| D4 D2 ||
|:E6|c6|E2 D2 (3DEF|G3 A B2|c3 d e2| d3 c B2|1(A6|A4) D2:|2(A6|A3) G GF||
G3 g gf|g3 B BA|G2 g3f|e3 E EF|G2 e3 d|dc Bc de|d2 c2 B2|A3 G GF|
G3 g gf|g3 B BA|G2 g3f|e3 E EF|G2 e3 d|d2 c2 B2|A2 G2 E2|(D6|D3)&quot;d.c.&quot;ABc||
